components/2.0/icon/icons/icon-lock-unlocked-18px.svg

<?xml version="1.0" encoding="UTF-8" standalone="no"?>
<svg width="18px" height="18px" viewBox="0 0 18 18" version="1.1" xmlns="http://www.w3.org/2000/svg" xmlns:xlink="http://www.w3.org/1999/xlink" xmlns:sketch="http://www.bohemiancoding.com/sketch/ns">
    <!-- Generator: Sketch 3.4.4 (17249) - http://www.bohemiancoding.com/sketch -->
    <title>icon-lock-unlocked-18px</title>
    <desc>Created with Sketch.</desc>
    <defs></defs>
    <g id="18px" stroke="none" stroke-width="1" fill="none" fill-rule="evenodd" sketch:type="MSPage">
        <g id="icon-lock-unlocked-18px" sketch:type="MSArtboardGroup" fill="#3D4752">
            <path d="M3,8 L15,8 L15,16 L3,16 L3,8 L3,8 Z M10,14 L8,14 L8,10 L10,10 L10,14 L10,14 Z M7,4.8 C7,4.3592 7.448,4 8,4 L10,4 C10.552,4 11,4.3592 11,4.8 L11,8 L7,8 L7,4.8 L7,4.8 Z M11,8 L11,5 L13,4.66666667 C13,3.19377778 11.657,2 10,2 L8,2 C6.343,2 5,3.19377778 5,4.66666667 L5,8 L11,8 L11,8 Z" id="Fill-1" sketch:type="MSShapeGroup"></path>
        </g>
    </g>
</svg>

<svg width="18" height="18" xmlns="http://www.w3.org/2000/svg"><path d="M3 8h12v8H3V8zm7 6H8v-4h2v4zM7 4.8c0-.4.4-.8 1-.8h2c.6 0 1 .4 1 .8V8H7V4.8zM11 8V5l2-.3C13 3.2 11.7 2 10 2H8C6.3 2 5 3.2 5 4.7V8h6z" fill="#3D4752" fill-rule="evenodd"/></svg>
